assets/img/icons/duotone-icons/Weather/Suset#2.svg

<?xml version="1.0" encoding="UTF-8"?>
<svg width="24px" height="24px" viewBox="0 0 24 24" version="1.1" xmlns="http://www.w3.org/2000/svg" xmlns:xlink="http://www.w3.org/1999/xlink">
    <!-- Generator: Sketch 52.2 (67145) - http://www.bohemiancoding.com/sketch -->
    <title>Stockholm-icons / Weather / Suset#2</title>
    <desc>Created with Sketch.</desc>
    <g id="Stockholm-icons-/-Weather-/-Suset#2" stroke="none" stroke-width="1" fill="none" fill-rule="evenodd">
        <polygon id="Shape" points="0 0 24 0 24 24 0 24"></polygon>
        <path d="M8.53512878,14 C9.22674762,12.8043973 10.5194353,12 12,12 C13.4805647,12 14.7732524,12.8043973 15.4648712,14 L8.53512878,14 Z M16,16 L8,16 L16,16 Z M4,16 L20,16 C20.5522847,16 21,16.4477153 21,17 L21,17 C21,17.5522847 20.5522847,18 20,18 L4,18 C3.44771525,18 3,17.5522847 3,17 L3,17 C3,16.4477153 3.44771525,16 4,16 Z" id="Combined-Shape" fill="#335EEA"></path>
        <path d="M16.0606602,8.87132034 L17.1213203,7.81066017 C17.7071068,7.22487373 18.6568542,7.22487373 19.2426407,7.81066017 C19.8284271,8.39644661 19.8284271,9.34619408 19.2426407,9.93198052 L18.1819805,10.9926407 C17.5961941,11.5784271 16.6464466,11.5784271 16.0606602,10.9926407 C15.4748737,10.4068542 15.4748737,9.45710678 16.0606602,8.87132034 Z M12,4.5 C12.8284271,4.5 13.5,5.17157288 13.5,6 L13.5,7.5 C13.5,8.32842712 12.8284271,9 12,9 C11.1715729,9 10.5,8.32842712 10.5,7.5 L10.5,6 C10.5,5.17157288 11.1715729,4.5 12,4.5 Z M4.81066017,7.81066017 C5.39644661,7.22487373 6.34619408,7.22487373 6.93198052,7.81066017 L7.99264069,8.87132034 C8.57842712,9.45710678 8.57842712,10.4068542 7.99264069,10.9926407 C7.40685425,11.5784271 6.45710678,11.5784271 5.87132034,10.9926407 L4.81066017,9.93198052 C4.22487373,9.34619408 4.22487373,8.39644661 4.81066017,7.81066017 Z" id="Oval" fill="#335EEA" opacity="0.3"></path>
    </g>
</svg>

<svg width="24" height="24" viewBox="0 0 24 24" xmlns="http://www.w3.org/2000/svg"><g fill="none" fill-rule="evenodd"><path d="M0 0h24v24H0z"/><path d="M8.535 14A3.998 3.998 0 0112 12c1.48 0 2.773.804 3.465 2h-6.93zM16 16H8h8zM4 16h16a1 1 0 010 2H4a1 1 0 010-2z" fill="#335EEA"/><path d="M16.06 8.871l1.061-1.06a1.5 1.5 0 012.122 2.121l-1.061 1.06a1.5 1.5 0 01-2.121-2.12zM12 4.5A1.5 1.5 0 0113.5 6v1.5a1.5 1.5 0 01-3 0V6A1.5 1.5 0 0112 4.5zM4.81 7.81a1.5 1.5 0 012.122 0l1.06 1.061a1.5 1.5 0 01-2.12 2.122L4.81 9.932a1.5 1.5 0 010-2.121z" fill="#335EEA" opacity=".3"/></g></svg>
